X:921
T:Stan Chapman's Jig
C:Jerry Holland
S:Sessions
Z:Nigel Gatherer
M:6/8
L:1/8
K:A
F | E3 EFA | B3 Bce | fea fec | ecA BAF |
    E3 EFA | B3 Bce | fea fec | ecA A2 :|
f | e3 ecA | f3 fga | fec BAB | cAF F2
f | e3 ecA | f3 fga | fec BAB | cAA A2 :|
<end>
<start>
